src/img/icons/accessibility.svg

<svg width="32" height="32" viewBox="0 0 32 32" fill="none" xmlns="http://www.w3.org/2000/svg">
<path d="M15.9333 7.73833C15.1402 7.73833 14.4761 7.47089 13.941 6.936C13.4059 6.40089 13.1383 5.73678 13.1383 4.94367C13.1383 4.15055 13.4059 3.48644 13.941 2.95133C14.4761 2.41622 15.1402 2.14867 15.9333 2.14867C16.7264 2.14867 17.3905 2.41622 17.9257 2.95133C18.4608 3.48644 18.7283 4.15055 18.7283 4.94367C18.7283 5.73678 18.4608 6.40089 17.9257 6.936C17.3905 7.47089 16.7264 7.73833 15.9333 7.73833ZM11.8053 28.1V12.2153C10.6838 12.118 9.56921 11.986 8.46166 11.8193C7.35388 11.6527 6.26666 11.4471 5.19999 11.2027C4.77444 11.1087 4.44844 10.8877 4.22199 10.5397C3.99532 10.1919 3.92477 9.80944 4.01032 9.39233C4.09588 8.96678 4.32921 8.66078 4.71032 8.47433C5.09144 8.28811 5.49055 8.242 5.90766 8.336C7.51632 8.67778 9.17066 8.932 10.8707 9.09867C12.5707 9.26533 14.2582 9.34867 15.9333 9.34867C17.6084 9.34867 19.3127 9.26533 21.046 9.09867C22.7793 8.932 24.4614 8.67778 26.0923 8.336C26.5094 8.242 26.9086 8.28811 27.2897 8.47433C27.6708 8.66078 27.9041 8.96678 27.9897 9.39233C28.0752 9.80944 28.0047 10.1919 27.778 10.5397C27.5515 10.8877 27.2255 11.1087 26.8 11.2027C25.7333 11.4471 24.6461 11.6527 23.5383 11.8193C22.4308 11.986 21.3162 12.118 20.1947 12.2153V28.1C20.1947 28.4949 20.0545 28.8324 19.7743 29.1127C19.4939 29.3931 19.1563 29.5333 18.7617 29.5333C18.3668 29.5333 18.0291 29.3931 17.7487 29.1127C17.4684 28.8324 17.3283 28.4949 17.3283 28.1V21.3793H14.6717V28.1C14.6717 28.4949 14.5315 28.8324 14.2513 29.1127C13.9709 29.3931 13.6332 29.5333 13.2383 29.5333C12.8437 29.5333 12.5061 29.3931 12.2257 29.1127C11.9454 28.8324 11.8053 28.4949 11.8053 28.1Z" fill="#131212"/>
</svg>

<svg xmlns="http://www.w3.org/2000/svg" viewBox="0 0 32 32">
  <path fill="currentColor" d="M15.933 7.738c-.793 0-1.457-.267-1.992-.802-.535-.535-.803-1.2-.803-1.992 0-.793.268-1.458.803-1.993.535-.535 1.2-.802 1.992-.802.793 0 1.457.267 1.993.802.535.535.802 1.2.802 1.993 0 .793-.267 1.457-.802 1.992-.535.535-1.2.802-1.993.802ZM11.805 28.1V12.215a53.57 53.57 0 0 1-3.343-.396 43.696 43.696 0 0 1-3.262-.616 1.505 1.505 0 0 1-.978-.663 1.48 1.48 0 0 1-.212-1.148 1.24 1.24 0 0 1 .7-.918 1.77 1.77 0 0 1 1.198-.138c1.608.342 3.263.596 4.963.763a51.862 51.862 0 0 0 10.175 0 46.103 46.103 0 0 0 5.046-.763 1.767 1.767 0 0 1 1.198.138c.38.187.614.493.7.918.085.417.015.8-.212 1.148a1.506 1.506 0 0 1-.978.663c-1.067.244-2.154.45-3.262.616a53.564 53.564 0 0 1-3.343.396V28.1c0 .395-.14.732-.42 1.013-.281.28-.619.42-1.013.42a1.38 1.38 0 0 1-1.013-.42 1.38 1.38 0 0 1-.42-1.013v-6.72h-2.657v6.72c0 .395-.14.732-.42 1.013-.281.28-.619.42-1.014.42a1.38 1.38 0 0 1-1.012-.42 1.38 1.38 0 0 1-.42-1.013Z"/>
</svg>
